!!!OTL: Bazhao hao
!!!ARE: Asia, China,ÿShandong, Qingdao
!! III, 365
!!!SCT: C1570
!!!YEM: Copyright 1995, estate of Helmut Schaffrath.
**kern
*ICvox
*Ivox
*M2/4
*k[]
*C:
{8gg
8ee
8ee
8dd
=1
16ee
16dd
16cc
16a
4a
=2
4ee
4dd
=3
16ee
16dd
16cc
16a
4a}
=4
{4ee
8dd
16cc
16a
=5
16ee
16gg
16ee
16dd
16dd
16cc
8a
=6
2cc
=7
8cc
8a
8g
8e}
=8
{4ee
4ee
=9
4ee
8dd
16cc
16a
=10
4cc
16cc
16a
16g
16e
=11
4a
4a}
=12
{4ee
16ee
16dd
16cc
16a
=13
16a
16dd
16cc
16a
4a
=14
4dd
8cc
16a
16cc
=15
2dd}
=16
{4.dd
16cc
16a
=17
4cc
8dd
16cc
16a
=18
2cc
=19
8cc
8a
8g
8e}
=20
{4ee
8dd
8cc
=21
16ee
16dd
16cc
16a
8g
8a
=22
4.dd
16a
16cc
=23
2dd}
=24
{8dd
8ee
8ee
8dd
=25
8ff#
8ee
16ee
16dd
16cc
16a
=26
4cc
16cc
16a
16g
16e
=27
4a
4a
=28
4.a
8r}
==
!!!AGN: Haozi, Haiyuan haozi
!!!AMT: simple duple
!!!AIN: vox
!!!EED: Helmut Schaffrath
!!!EEV: 1.0
*-
